img/svg/security.svg

<?xml version="1.0" encoding="UTF-8"?>
<svg width="48px" height="60px" viewBox="0 0 48 60" version="1.1" xmlns="http://www.w3.org/2000/svg" xmlns:xlink="http://www.w3.org/1999/xlink">
    <!-- Generator: Sketch 52.6 (67491) - http://www.bohemiancoding.com/sketch -->
    <title>seguridad</title>
    <desc>Created with Sketch.</desc>
    <g id="Quentia-Index-1.5" stroke="none" stroke-width="1" fill="none" fill-rule="evenodd">
        <g id="index-MENU-CLICKED-2" transform="translate(-1182.000000, -1566.000000)" fill="#F2DAC3">
            <g id="Group-9-Copy-2" transform="translate(1110.000000, 1563.000000)">
                <g id="seguridad" transform="translate(72.000000, 3.000000)">
                    <path d="M10.779661,18.2542373 C11.440678,18.0508475 11.8474576,17.4915254 11.8474576,16.8305085 C11.8474576,14.9491525 11.7966102,13.1186441 11.8474576,11.2881356 C12.2033898,5.03389831 17.440678,0.101694915 23.7457627,0.0508474576 C30.1016949,7.00828284e-16 35.3898305,4.83050847 35.7457627,11.1355932 C35.8474576,13.0169492 35.7966102,14.8983051 35.7966102,16.779661 C35.7966102,17.440678 36.2542373,18.0508475 36.9152542,18.2542373 C37.8813559,18.5084746 38.6949153,18.7118644 39.5084746,19.0169492 C46.7288136,21.7118644 49.6779661,29.6440678 46.4237288,37.9322034 C43.1694915,46.220339 37.0677966,52.1186441 29.8983051,57.0508475 C24.1016949,61.0169492 23.5423729,60.9661017 17.7457627,56.9491525 C11.0847458,52.3728814 5.28813559,46.9322034 2.03389831,39.4067797 C0.86440678,36.7118644 0.101694915,33.559322 0.152542373,30.6101695 C0.203389831,24.1016949 3.66101695,20.2372881 10.779661,18.2542373 Z M44.9491525,31.9322034 C45.0508475,31.7288136 45.0508475,31.4745763 45.0508475,31.2711864 C44.440678,26.7457627 42.1525424,23.3898305 38.2881356,21.8644068 C34.0677966,20.2372881 29.4915254,21.4067797 26.2881356,24.9152542 C23.7457627,27.7118644 23.7457627,27.7118644 21.2542373,24.8135593 C18.2542373,21.3050847 13.6271186,20.2372881 9.25423729,21.9661017 C5.18644068,23.5932203 2.69491525,27.2542373 3.20338983,31.8305085 C3.55932203,34.6779661 4.47457627,37.6271186 5.84745763,40.1694915 C9.45762712,46.8305085 15,51.7118644 21.4067797,55.5254237 C22.6779661,56.2881356 24.7627119,56.2881356 26.0338983,55.5254237 C32.4915254,51.7118644 37.9322034,46.779661 41.6440678,40.220339 C43.220339,37.6779661 43.9322034,34.7288136 44.9491525,31.9322034 Z M31.9322034,17.8474576 C32.3898305,17.5932203 32.6949153,17.0847458 32.6949153,16.5762712 C32.6949153,15.1016949 32.7457627,13.4237288 32.6949153,11.7457627 C32.440678,6.96610169 28.8813559,3.40677966 24.2542373,3.25423729 C19.4237288,3.10169492 15.6610169,6.15254237 15.1016949,10.9322034 C14.8474576,12.9152542 15,14.9491525 15.0508475,16.6271186 C15.0508475,17.1864407 15.3559322,17.6440678 15.8644068,17.8983051 C18.5084746,19.2711864 20.8983051,20.5932203 23.1864407,21.7627119 C23.6440678,22.0169492 24.1525424,21.9661017 24.559322,21.7627119 C26.8474576,20.5932203 29.2372881,19.3220339 31.9322034,17.8474576 Z" id="Shape" fill-rule="nonzero"></path>
                    <path d="M25.3220339,39.2033898 C25.3220339,40.0677966 25.5254237,40.9322034 25.2711864,41.6949153 C25.220339,41.8983051 25.0677966,42.1016949 24.9661017,42.3050847 C24.3559322,43.1694915 22.9322034,43.1694915 22.4745763,42.2033898 C22.4237288,42.1016949 22.3728814,42 22.3728814,41.8983051 C22.1694915,40.0677966 22.1694915,38.1864407 22.3728814,36.3559322 C22.3728814,36.2033898 22.4745763,36.0508475 22.5254237,35.8983051 C23.0338983,35.0847458 24.2542373,35.0338983 24.8644068,35.7966102 C25.0169492,36 25.1694915,36.2033898 25.220339,36.4576271 C25.5254237,37.2711864 25.3220339,38.2372881 25.3220339,39.2033898 Z" id="Path"></path>
                </g>
            </g>
        </g>
    </g>
</svg>

<svg width="48" height="60" viewBox="0 0 48 60" xmlns="http://www.w3.org/2000/svg"><title>seguridad</title><g fill="#F2DAC3" fill-rule="evenodd"><path d="M10.78 18.254c.66-.203 1.067-.762 1.067-1.423 0-1.882-.05-3.712 0-5.543C12.203 5.034 17.441.102 23.746.051c6.356-.051 11.644 4.78 12 11.085.101 1.88.05 3.762.05 5.644 0 .66.458 1.27 1.12 1.474.965.254 1.779.458 2.592.763 7.22 2.695 10.17 10.627 6.916 18.915-3.255 8.288-9.356 14.187-16.526 19.119-5.796 3.966-6.356 3.915-12.152-.102-6.661-4.576-12.458-10.017-15.712-17.542C.864 36.712.102 33.559.153 30.61c.05-6.508 3.508-10.373 10.627-12.356zm34.17 13.678c.1-.203.1-.457.1-.66-.61-4.526-2.897-7.882-6.762-9.408-4.22-1.627-8.796-.457-12 3.051-2.542 2.797-2.542 2.797-5.034-.101-3-3.509-7.627-4.577-12-2.848-4.068 1.627-6.56 5.288-6.05 9.865.355 2.847 1.27 5.796 2.643 8.338 3.61 6.662 9.153 11.543 15.56 15.356 1.271.763 3.356.763 4.627 0 6.458-3.813 11.898-8.745 15.61-15.305 1.576-2.542 2.288-5.491 3.305-8.288zM31.931 17.847c.458-.254.763-.762.763-1.27 0-1.475.05-3.153 0-4.831-.254-4.78-3.814-8.34-8.44-8.492-4.831-.152-8.594 2.899-9.153 7.678-.255 1.983-.102 4.017-.051 5.695 0 .56.305 1.017.813 1.271 2.644 1.373 5.034 2.695 7.322 3.865.458.254.967.203 1.373 0 2.288-1.17 4.678-2.441 7.373-3.916z" fill-rule="nonzero"/><path d="M25.322 39.203c0 .865.203 1.73-.05 2.492-.052.203-.204.407-.306.61-.61.864-2.034.864-2.491-.102-.051-.101-.102-.203-.102-.305a25.248 25.248 0 0 1 0-5.542c0-.153.102-.305.152-.458.509-.813 1.73-.864 2.34-.101.152.203.304.406.355.66.305.814.102 1.78.102 2.746z"/></g></svg>
